flags/it-34.svg

<svg width="512" height="512" viewBox="0 0 512 512" fill="none" xmlns="http://www.w3.org/2000/svg">
<rect y="204.863" width="512" height="307.137" fill="var(--flag-palette-dark-brown, #584528)"/>
<rect width="512" height="256" fill="var(--flag-palette-blue, #0052b4)"/>
<path fill-rule="evenodd" clip-rule="evenodd" d="M512 0H0V512H512V0ZM480 32H32V480H480V32Z" fill="var(--flag-palette-gold, #ff9811)"/>
<path d="M168.851 200C195.361 200 216.851 178.51 216.851 152C216.851 125.49 195.361 104 168.851 104C142.342 104 120.851 125.49 120.851 152C120.851 178.51 142.342 200 168.851 200Z" fill="var(--flag-palette-yellow, #ffda44)"/>
<path d="M384 288V272C384 241 362.5 216 336 216H248V144C248 132 232 120 232 120C232 120 216 132 216 144H144V216H176V251.7C176 259.4 176 264 182.5 274L166 287.8L112 288V312H224V360H200V384H248V336L272 312H320V360H296V384H344V336L368 312L408 352V360H384V384H432V336L384 288Z" fill="var(--flag-palette-gold, #ff9811)"/>
<path d="M264 144H400C400 150.365 397.471 156.47 392.971 160.971C388.47 165.471 382.365 168 376 168C376 174.365 373.471 180.47 368.971 184.971C364.47 189.471 358.365 192 352 192C352 198.365 349.471 204.47 344.971 208.971C340.47 213.471 334.365 216 328 216H248C270.1 216 288 194.5 288 168C288 161.635 285.471 155.53 280.971 151.029C276.47 146.529 270.365 144 264 144ZM184 312V376H144C139.757 376 135.687 377.686 132.686 380.686C129.686 383.687 128 387.757 128 392C128 387.757 126.314 383.687 123.314 380.686C120.313 377.686 116.243 376 112 376H72V312H112C116.243 312 120.313 313.686 123.314 316.686C126.314 319.687 128 323.757 128 328C128 323.757 129.686 319.687 132.686 316.686C135.687 313.686 139.757 312 144 312H184Z" fill="var(--flag-palette-white, #eeeeee)"/>
<path d="M428 200C428 194.9 422 185.5 419.3 181.7L416 177L412.7 181.7C410.1 185.5 404 194.9 404 200C404.003 202.479 404.773 204.897 406.206 206.92C407.639 208.944 409.663 210.474 412 211.3V280C412 281.061 411.579 282.078 410.828 282.828C410.078 283.579 409.061 284 408 284C406.939 284 405.922 283.579 405.172 282.828C404.421 282.078 404 281.061 404 280V264C404 260.817 402.736 257.765 400.485 255.515C398.235 253.264 395.183 252 392 252H376V260H392C393.061 260 394.078 260.421 394.828 261.172C395.579 261.922 396 262.939 396 264V280C396 283.183 397.264 286.235 399.515 288.485C401.765 290.736 404.817 292 408 292C411.183 292 414.235 290.736 416.485 288.485C418.736 286.235 420 283.183 420 280V211.3C424.7 209.6 428 205.3 428 200Z" fill="var(--flag-palette-gold, #ff9811)"/>
</svg>

<svg xmlns="http://www.w3.org/2000/svg" width="512" height="512" fill="none"><g clip-path="url(#a)"><path fill="var(--flag-palette-dark-brown, #584528)" d="M0 204.9h512V512H0z"/><path fill="var(--flag-palette-blue, #0052b4)" d="M0 0h512v256H0z"/><path fill="var(--flag-palette-gold, #ff9811)" fill-rule="evenodd" d="M512 0H0v512h512zm-32 32H32v448h448z" clip-rule="evenodd"/><path fill="var(--flag-palette-yellow, #ffda44)" d="M168.9 200a48 48 0 1 0 0-96 48 48 0 0 0 0 96"/><path fill="var(--flag-palette-gold, #ff9811)" d="M384 288v-16c0-31-21.5-56-48-56h-88v-72c0-12-16-24-16-24s-16 12-16 24h-72v72h32v35.7c0 7.7 0 12.3 6.5 22.3L166 287.8l-54 .2v24h112v48h-24v24h48v-48l24-24h48v48h-24v24h48v-48l24-24 40 40v8h-24v24h48v-48z"/><path fill="#EEE" d="M264 144h136a24 24 0 0 1-24 24 24 24 0 0 1-24 24 24 24 0 0 1-24 24h-80c22.1 0 40-21.5 40-48a24 24 0 0 0-24-24m-80 168v64h-40a16 16 0 0 0-16 16 16 16 0 0 0-16-16H72v-64h40a16 16 0 0 1 16 16 16 16 0 0 1 16-16z"/><path fill="var(--flag-palette-gold, #ff9811)" d="M428 200c0-5.1-6-14.5-8.7-18.3L416 177l-3.3 4.7c-2.6 3.8-8.7 13.2-8.7 18.3a12 12 0 0 0 8 11.3V280a4 4 0 1 1-8 0v-16a12 12 0 0 0-12-12h-16v8h16a4 4 0 0 1 4 4v16a12 12 0 1 0 24 0v-68.7c4.7-1.7 8-6 8-11.3"/></g><defs><clipPath id="a"><path fill="#fff" d="M0 0h512v512H0z"/></clipPath></defs></svg>
